X: 40539
T: Tommy Mulhaire's
R: jig
M: 6/8
K: Edorian
Bee Bcd|ABG FED|GFG AGA|B2 A Bcd|
Bee Bcd|ABG FEF|DFA dAF|EFE E2A:|
BEF G2A|BAG FED|BEF G2A|B2A Bed|
BEF G2A|BAG FEF|DFA dAF|EFE E2A:|

